assets/images/icons/showBig.svg

<svg width="48" height="48" viewBox="0 0 48 48" fill="none" xmlns="http://www.w3.org/2000/svg">
<circle cx="24" cy="24" r="24" fill="#0029FF"/>
<path fill-rule="evenodd" clip-rule="evenodd" d="M24 14C23.4477 14 23 14.4477 23 15V23H15C14.4477 23 14 23.4477 14 24C14 24.5523 14.4477 25 15 25H23V33C23 33.5523 23.4477 34 24 34C24.5523 34 25 33.5523 25 33V25H33C33.5523 25 34 24.5523 34 24C34 23.4477 33.5523 23 33 23H25V15C25 14.4477 24.5523 14 24 14Z" fill="white"/>
</svg>

<svg width="48" height="48" fill="none" xmlns="http://www.w3.org/2000/svg"><circle cx="24" cy="24" r="24" fill="#0029FF"/><path fill-rule="evenodd" clip-rule="evenodd" d="M24 14a1 1 0 00-1 1v8h-8a1 1 0 100 2h8v8a1 1 0 102 0v-8h8a1 1 0 100-2h-8v-8a1 1 0 00-1-1z" fill="#fff"/></svg>
